logos/hootsuite-icon.svg

<?xml version="1.0" encoding="UTF-8"?>
<svg width="256px" height="257px" viewBox="0 0 256 257" version="1.1" xmlns="http://www.w3.org/2000/svg" preserveAspectRatio="xMidYMid">
    <title>Hootsuite</title>
    <g>
        <path d="M25.5511693,2.11755514 C26.1099414,0.53887721 27.789444,-0.322099694 29.3793861,0.112023015 L29.6057808,0.182913094 C29.6057808,0.182913094 80.1347349,19.3916411 115.3812,32.7906866 C119.436447,32.1228804 123.462795,31.7905256 127.424331,31.8189086 C142.393962,31.9226526 156.530851,35.2833238 170.707661,43.6575313 L253.2111,36.827194 L253.2111,36.827194 C254.186724,36.7837818 255.108422,37.2762654 255.614072,38.1120954 C256.334792,39.3035279 256.01486,40.8337822 254.914369,41.6429972 L254.680665,41.7964171 C253.656934,42.392696 227.816876,57.4433992 203.140441,71.8163424 C203.973178,72.7709889 204.807414,73.7463764 205.644029,74.7422901 C229.125111,102.740905 243.409123,143.254262 250.230983,166.679406 C254.259484,180.514087 251.643335,195.434745 243.148567,207.073753 C227.814996,228.059453 195.114568,256.628999 130.959231,256.173629 C60.9183295,255.688614 24.7409683,220.842368 7.35948487,199.426512 C-0.0471486464,190.226765 -2.02457444,177.790851 2.16315778,166.747358 L3.46337345,163.347516 C13.7205455,136.669951 32.8286976,90.335837 48.1347649,73.1072397 C57.3493922,62.7473048 67.9754484,53.8022496 79.2018367,46.9127109 L26.5214237,5.62573649 L26.5214237,5.62573649 C25.4936732,4.77583482 25.106103,3.37469381 25.5511693,2.11755514 Z" fill="#FF4C46"></path>
        <path d="M128.965801,183.474657 C129.078061,183.186035 129.402966,183.04358 129.691591,183.155841 C140.886021,189.582148 154.325109,190.76532 166.453233,186.420318 L167.151453,186.16351 C167.368156,186.062502 167.625499,186.117991 167.781442,186.299384 C167.946341,186.490888 167.951264,186.765838 167.80861,186.961639 L152.455118,203.868406 L152.455118,203.868406 C151.479081,204.935202 149.831166,205.031023 148.738043,204.084342 C143.060958,199.205774 133.578962,189.013356 129.035045,184.008556 C128.922204,183.854119 128.896452,183.652889 128.965801,183.474657 Z M150.281195,96.8890922 C189.984791,69.2653411 211.508911,93.2439915 223.585695,119.8436 C232.310441,139.014046 235.399928,174.904902 207.077307,180.40514 C185.381915,184.635973 165.33454,162.655736 150.507988,142.134226 C148.986008,140.032718 146.048343,139.562898 143.946835,141.08488 C143.550834,141.371604 143.202371,141.718499 142.913305,142.11252 L142.309516,142.952623 C132.160503,157.183551 107.958874,195.871188 72.1433178,186.079791 C37.5831348,176.618634 29.9895687,137.742949 44.362375,110.869281 C65.6308019,70.3471917 96.7010489,57.1439264 150.281195,96.8890922 Z M144.637929,152.494907 C146.007303,151.178192 148.148581,151.158969 149.540148,152.407657 L149.739987,152.601852 L149.739987,152.601852 L168.713402,174.222363 L168.713402,174.222363 C168.814111,174.337356 168.901035,174.464552 168.971581,174.600087 C169.461925,175.541524 169.096212,176.702129 168.154777,177.192474 C162.443266,180.104005 156.149597,181.692823 149.740564,181.84061 C141.304251,181.771052 132.670263,176.171731 129.135987,173.597766 L128.991513,173.480968 L128.991513,173.480968 C128.251496,172.822412 128.140397,171.720025 128.702548,170.93133 L128.83333,170.767401 C128.83333,170.767401 144.424078,152.683292 144.424078,152.683292 L144.449884,152.689823 L144.449884,152.689823 C144.510029,152.622664 144.57285,152.557608 144.637929,152.494907 Z" fill="#FFFFFF"></path>
        <path d="M196.358377,120.777582 L196.576534,121.132566 C201.167632,128.259389 199.111749,137.758267 191.984923,142.349365 C184.858187,146.940129 175.359225,144.884578 170.768124,137.757754 C166.302547,130.825601 168.120807,121.63354 174.814477,116.909218 L175.184413,116.655998 C181.85033,111.885151 191.1217,113.420938 195.892548,120.086852 C196.054345,120.312757 196.209647,120.543042 196.358377,120.777582 Z M100.381342,112.600894 C92.3919293,115.324381 88.4196265,123.809827 90.8002491,131.712481 C93.5237353,139.701892 102.009181,143.674195 109.911835,141.293574 C117.901247,138.570087 121.808371,129.977212 119.492842,122.182322 C119.514456,122.130733 119.46247,121.983848 119.36487,121.807233 C116.906587,114.115659 109.057152,110.051094 101.584204,112.175276 C101.241005,112.088433 100.811383,112.344539 100.381342,112.600894 Z" fill="#FF4C46"></path>
    </g>
</svg>

<?xml version="1.0" encoding="UTF-8"?>
<svg width="256" height="257" version="1.1" xmlns="http://www.w3.org/2000/svg" preserveAspectRatio="xMidYMid">
	<path d="M25.551 2.118A3.177 3.177 0 0 1 29.38.112l.227.07 85.775 32.609c4.055-.668 8.082-1 12.043-.972 14.97.104 29.107 3.464 43.284 11.839l82.503-6.83a2.67 2.67 0 0 1 1.703 4.815l-.233.153-51.54 30.02c.832.955 1.666 1.93 2.503 2.926 23.481 27.999 37.765 68.512 44.587 91.937a46.478 46.478 0 0 1-7.082 40.395c-15.334 20.985-48.034 49.555-112.19 49.1-70.04-.485-106.218-35.332-123.6-56.747a33.29 33.29 0 0 1-5.196-32.68l1.3-3.4c10.258-26.677 29.366-73.011 44.672-90.24 9.214-10.36 19.84-19.305 31.067-26.194L26.522 5.626a3.177 3.177 0 0 1-.97-3.508Z" fill="#FF4C46"/>
	<path d="M128.966 183.475a.56.56 0 0 1 .726-.32 44.021 44.021 0 0 0 36.761 3.265l.698-.256a.533.533 0 0 1 .658.798l-15.354 16.906a2.67 2.67 0 0 1-3.717.216c-5.677-4.878-15.159-15.07-19.703-20.075a.56.56 0 0 1-.07-.534Zm21.315-86.586c39.704-27.624 61.228-3.645 73.305 22.955 8.724 19.17 11.814 55.06-16.509 60.561-21.695 4.231-41.742-17.75-56.569-38.27a4.699 4.699 0 0 0-7.595-.022l-.603.84c-10.15 14.23-34.351 52.918-70.167 43.127-34.56-9.461-42.153-48.337-27.78-75.21C65.63 70.346 96.7 57.143 150.28 96.89Zm-5.643 55.606a3.605 3.605 0 0 1 4.902-.087l.2.194 18.973 21.62a1.922 1.922 0 0 1-.559 2.97 42.714 42.714 0 0 1-18.413 4.649c-8.437-.07-17.07-5.67-20.605-8.243l-.144-.117a1.923 1.923 0 0 1-.29-2.55l.131-.164 15.591-18.084.026.007a3.68 3.68 0 0 1 .188-.195Z" fill="#FFF"/>
	<path d="m196.358 120.778.219.355c4.59 7.126 2.535 16.625-4.592 21.216-7.127 4.591-16.626 2.536-21.217-4.591-4.465-6.932-2.647-16.124 4.046-20.849l.37-.253c6.666-4.77 15.938-3.235 20.709 3.43.161.227.317.457.465.692Zm-95.977-8.177c-7.99 2.723-11.961 11.209-9.58 19.111 2.723 7.99 11.208 11.962 19.11 9.582 7.99-2.724 11.897-11.317 9.582-19.112.021-.051-.03-.198-.128-.375-2.458-7.691-10.308-11.756-17.78-9.632-.344-.087-.774.17-1.204.426Z" fill="#FF4C46"/>
</svg>
